X:1
T:The Bird with the Broken Wing
T:The Bird with the Broken Wing
T:Daniel Brink Towner, 1919
T:Hezekiah Butterworth, 1890, & Peter Bilhorn
T:Public Domain Courtesy of the Cyber Hymnal™
T:Public Domain Courtesy of the Cyber Hymnal™
C:Daniel Brink Towner, 1919
Z:Public Domain
Z:Courtesy of the Cyber Hymnal™
%%score ( 1 2 ) ( 3 4 )
L:1/8
Q:1/4=95
M:6/8
K:F
V:1 treble 
V:2 treble 
V:3 bass 
V:4 bass 
V:1
 ([FA]/[FA]/) | ([FA][FA])[FA] [DG]2 [CF] | [FB]3 [FA]2 ([FA]/[FA]/) | [GB]2 [EG] [Ec]2 [EB] | %4
w: 1.~I *|walked~in * the wood- land|mea- dows, Where *|sweet the thrush- es|
w: 2.~I *|found * a young life|brok- en By *|sin’s se- duc- tive|
w: 3.~But~the *|bird~with * the brok- en|pin- ion Kept~an- *|o- ther from the|
w: 4.~But~the *|soul * that comes to|Je- sus Is *|saved from ev- ery|
 [FA]3- [FA]2 [FA] | [Fd][Fd][Fd] [Fe]2 [Fd] | [Fc] [FA]4 [FA] | ([G=B][GB])[Gc] [Ge]2 [Gd] | %8
w: sing, * And|found on a bed of|moss- es, A|bird~with * a brok- en|
w: art, * And,|touched with a Christ- like|pi- ty, I|took * him to my|
w: snare, * The|li- fe that sin had|strick- en, Raised|ano- * ther from des-|
w: sin, * And|the heart that ful- ly|trusts Him Shall|a~crown * of glo- ry|
 [Gc]3- [Gc]2 [Gc] | ([cf][cf])[cf] ([Ge][EB])[GB] | [Fd]3 [Fc]2 [Ac] [Af]2 [Af] [Ge]2 [A^c] | %11
w: wing; * I|healed * its wing,~and * each|morn- ing It sang its old sweet|
w: heart; * He|lived~with * a nob- * ler|pur- pose, And strug- gled not in|
w: pair; * Each|loss~has * its own~com- * pen-|sa- tion, There’s heal- ing for each|
w: win; * Then|come~to * the dear * Re-|deem- er, He’ll cleanse you from every|
 [Gd]3- [Gd]2 [Ad]/[Ad]/ | [Be][Be][Ge] [Ff]2 [cf] | [cf] [Fc]4 [Fc]/[Fc]/ | [Fc]2 [Fd] [FA]2 G | %15
w: strain, * But the|bird with the brok- en|pin- ion, * *||
w: vain, * But the|li- fe that sin had|strick- en, Nev- er|soared as high a-|
w: pain, * But the|bird with the brok- en|pin- ion * *||
w: stain. * By His|won- der- ful love and|mer- cy, You shall|sure- ly rise a-|
 [Fc]3- [Fc]2 [Fd]/[Ge]/ | [cf]2 [cf] !fermata![cg]2 [cf] | [cf]3- [cf]2 |] %18
w: |||
w: gain, * Nev- er|soared as high a-|gain. *|
w: |||
w: gain, * You shall|sure- ly rise a-|gain. *|
V:2
 x | x6 | x6 | x6 | x6 | x6 | x6 | x6 | x6 | x6 | x12 | x6 | x6 | x6 | x5 G | x6 | x6 | x5 |] %18
V:3
 ([F,C]/[F,C]/) | ([F,C][F,C])[F,C] [F,B,]2 [F,A,] | [F,D]3 [F,C]2 ([F,C]/[F,C]/) | %3
 [C,C]2 [C,B,] [C,A,]2 [C,D] | [F,C]3- [F,C]2 [F,C] | [B,,B,][B,,B,][B,,B,] [B,,B,]2 [B,,B,] | %6
 [F,A,] [F,C]4 [F,C] | ([D,D][D,D])[C,E] [G,C]2 [G,F] | [C,E]3- [C,E]2 [G,B,] | %9
 ([F,A,][F,A,])[F,A,] ([C,B,][C,G,])[C,E,] | [F,B,]3 [F,A,]2 [F,A,] [D,D]2 [D,D] (^CA,)[A,,G,] | %11
 [D,F,]3- [D,F,]2 [D,F,]/[D,F,]/ | [C,C][C,C][C,B,] [F,A,]2 [F,A,] | %13
 [F,A,] [F,A,]4 [F,A,]/[F,A,]/ | [F,A,]2 [F,B,] [C,C]2 [E,B,] | [F,A,]3- [F,A,]2 B,/[G,B,]/ | %16
 [F,A,]2 [F,A,] !fermata![C,B,]2 [F,A,] | [F,A,]3- [F,A,]2 |] %18
V:4
 x | x6 | x6 | x6 | x6 | x6 | x6 | x6 | x6 | x6 | x9 [A,,A,]2 x | x6 | x6 | x6 | x6 | x5 B,/ x/ | %16
 x6 | x5 |] %18

